X:1
T:James Gibb editions
T:Lo spensierato - Gastoldi
%%score [ 1 2 3 ]
L:1/8
Q:1/4=100
M:2/2
K:F
V:1 treble-8 nm="Tenor I" snm="T I"
V:2 treble-8 nm="Tenor II" snm="T II"
V:3 bass nm="Bass" snm="B"
V:1
"^Lo spensierato""^Giovanni Gastoldi\n(1560-1609)" z2 d2 | d2 d2 c2 B2 | A2 A2 z2 B2 | %3
w: Poi|che'l mio fo- co~~è|spen- to Vi-|
w: Poi|che quel lac- ciò~~è|sciol- to Ond'|
w: Poi|che d'a- mor son|pri- vo Vi-|
 c2 d2 _e2 c2 |[M:2/2][K:treble-8] d2 d2 | z2 dd | c2 cd B2 Bc | A2 A2 z2 B2 | c4 B2 (AG) | G4 :| %10
w: vrò lie- to~~e con-|ten- to|E ri-|den- do~~e so- nan- do~~e bal-|lan- do Go-|drò can- tan\- *|do.|
w: eb- bi~~il co- re~~in|vol- to|Vi- vrò|lie- to con giu- bi- lo~~e|gio- ia, pri-|vo di no\- *|ia.|
w: ta fe- li- ce~~io|vi- vo|Et al-|le- gro mi go- do nel|mon- do Col|cor gio- con\- *|do.|
V:2
 z2 B2 | B2 B2 A2 G2 | ^F2 F2 z2 G2 | A2 B2 G2 A2 |[M:2/2][K:treble-8] B2 B2 | z2 BB | %6
w: Poi-|che'l mio fo- co~~è|spen- to Vi-|vrò lie- to~~e con-|ten- to|E ri-|
w: Poi|che quel lac- ciò~~è|sciol- to Ond'|eb- bi~~il co- re~~in|vol- to|Vi- vrò|
w: Poi|che d'a- mor son|pri- vo Vi-|ta fe- li- ce~~io|vi- vo|Et al-|
 A2 AA G2 GG | ^F2 F2 z2 G2 | E4 G2 (^FE) | G4 :| %10
w: den- do~~e so- nan- do~~e bal-|lan- do Go-|drò can- tan\- *|do.|
w: lie- to con giù- bi- lo~~e|gio- ia, pri-|vo di no\- *|ia.|
w: le- gro mi go- do nel|mon- do Col|cor gio- con\- *|do.|
V:3
 z2 B,,2 | B,,2 B,,2 F,2 G,2 | D,2 D,2 z2 G,2 | F,2 D,2 C,2 F,2 |[M:2/2] B,,2 B,,2 | z2 B,,B,, | %6
w: Poi|che'l mio fo- co~~è|spen- to Vi-|vrò lie- to~~e con-|ten- to|E ri-|
w: Poi|che quel lac- ciò~~è|sciol- to Ond'|eb- bi~~il co- re~~in|vol- to|Vi- vrò|
w: Poi|che d'a- mor son|pri- vo Vi-|ta fe- li- ce~~io|vi- vo|Et al-|
 F,2 F,D, _E,2 E,C, | D,2 D,2 z2 G,,2 | C,2 C,2 D,4 | G,,4 :| %10
w: den- do~~e so- nan- do~~e bal-|lan- do Go-|drò can- tan-|do.|
w: lie- to con giu- bi- lo~~e|gio- ia, pri-|vo di no-|ia.|
w: le- gro mi go- do nel|mon- do Col|cor gio- con-|do.|

